images/ETHBNT.svg

<svg height="250" viewBox="0 0 250 250" width="250" xmlns="http://www.w3.org/2000/svg"><path d="m0 0h250v250h-250z" fill="#fff"/><path d="m242.132812 124.5625c0 65.402344-52.832031 118.421875-118.007812 118.421875-65.171875 0-118.007812-53.019531-118.007812-118.421875s52.835937-118.421875 118.007812-118.421875c65.175781 0 118.007812 53.019531 118.007812 118.421875zm0 0" fill="#faf9f9"/><path d="m157.000594 142.00125c0 37.001016-29.998719 66.997266-66.999969 66.997266-37.005719 0-66.999969-29.99625-66.999969-66.997266 0-37.005469 29.99425-67.001719 66.999969-67.001719 37.00125 0 66.999969 29.99625 66.999969 67.001719zm0 0" stroke="#d9d7d7" stroke-width="4" transform="scale(.874126 .877193)"/><path d="m261.001812 142.00125c0 37.001016-29.998718 66.997266-66.999968 66.997266-37.005719 0-66.999969-29.99625-66.999969-66.997266 0-37.005469 29.99425-67.001719 66.999969-67.001719 37.00125 0 66.999968 29.99625 66.999968 67.001719zm0 0" fill="#fff" stroke="#d9d7d7" stroke-width="4" transform="scale(.874126 .877193)"/><path d="m75.855469 80.703125 19.824219 11.808594-19.824219 11.820312-19.816407-11.820312zm24.230469 18.789063v23.628906l-20.214844 12.03125v-23.621094zm-20.214844 45.300781 26.773437-15.914063v23.628906l-26.773437 15.914063zm-28.296875-21.683594v-23.617187l20.207031 12.039062v23.621094zm0 33.269531v-23.628906l20.207031 12.042969v23.617187zm0 0" fill="#fff"/><path d="m169.714844 76.238281-.644532 2.203125v63.921875l.644532.648438 29.570312-17.539063zm0 0" fill="#343434"/><path d="m169.714844 76.242188-29.566406 49.230468 29.566406 17.539063zm0 0" fill="#8c8c8c"/><path d="m169.714844 148.628906-.363282.445313v22.769531l.363282 1.070312 29.585937-41.8125zm0 0" fill="#3c3c3b"/><path d="m169.714844 172.910156v-24.28125l-29.566406-17.53125zm0 0" fill="#8c8c8c"/><path d="m169.546875 142.679688 29.570313-17.539063-29.570313-13.488281zm0 0" fill="#141414"/><path d="m140.148438 125.472656 29.566406 17.539063v-31.023438zm0 0" fill="#393939"/></svg>

<svg xmlns="http://www.w3.org/2000/svg" xmlns:xlink="http://www.w3.org/1999/xlink" width="250px" height="250px" viewBox="0 0 250 250" version="1.1">
<g id="surface1">
<rect x="0" y="0" width="250" height="250" style="fill:rgb(100%,100%,100%);fill-opacity:1;stroke:none;"/>
<path style=" stroke:none;fill-rule:nonzero;fill:rgb(98.039216%,97.647059%,97.647059%);fill-opacity:1;" d="M 242.132812 124.5625 C 242.132812 189.964844 189.300781 242.984375 124.125 242.984375 C 58.953125 242.984375 6.117188 189.964844 6.117188 124.5625 C 6.117188 59.160156 58.953125 6.140625 124.125 6.140625 C 189.300781 6.140625 242.132812 59.160156 242.132812 124.5625 Z M 242.132812 124.5625 "/>
<path style="fill-rule:nonzero;fill:rgb(0%,0%,0%);fill-opacity:1;stroke-width:4;stroke-linecap:butt;stroke-linejoin:miter;stroke:rgb(85.09804%,84.313726%,84.313726%);stroke-opacity:1;stroke-miterlimit:4;" d="M 157.000594 142.00125 C 157.000594 179.002266 127.001875 208.998516 90.000625 208.998516 C 52.994906 208.998516 23.000656 179.002266 23.000656 142.00125 C 23.000656 104.995781 52.994906 74.999531 90.000625 74.999531 C 127.001875 74.999531 157.000594 104.995781 157.000594 142.00125 Z M 157.000594 142.00125 " transform="matrix(0.874126,0,0,0.877193,0,0)"/>
<path style="fill-rule:nonzero;fill:rgb(100%,100%,100%);fill-opacity:1;stroke-width:4;stroke-linecap:butt;stroke-linejoin:miter;stroke:rgb(85.09804%,84.313726%,84.313726%);stroke-opacity:1;stroke-miterlimit:4;" d="M 261.001812 142.00125 C 261.001812 179.002266 231.003094 208.998516 194.001844 208.998516 C 156.996125 208.998516 127.001875 179.002266 127.001875 142.00125 C 127.001875 104.995781 156.996125 74.999531 194.001844 74.999531 C 231.003094 74.999531 261.001812 104.995781 261.001812 142.00125 Z M 261.001812 142.00125 " transform="matrix(0.874126,0,0,0.877193,0,0)"/>
<path style=" stroke:none;fill-rule:nonzero;fill:rgb(100%,100%,100%);fill-opacity:1;" d="M 75.855469 80.703125 L 95.679688 92.511719 L 75.855469 104.332031 L 56.039062 92.511719 Z M 100.085938 99.492188 L 100.085938 123.121094 L 79.871094 135.152344 L 79.871094 111.53125 Z M 79.871094 144.792969 L 106.644531 128.878906 L 106.644531 152.507812 L 79.871094 168.421875 Z M 51.574219 123.109375 L 51.574219 99.492188 L 71.78125 111.53125 L 71.78125 135.152344 Z M 51.574219 156.378906 L 51.574219 132.75 L 71.78125 144.792969 L 71.78125 168.410156 Z M 51.574219 156.378906 "/>
<path style=" stroke:none;fill-rule:nonzero;fill:rgb(20.392157%,20.392157%,20.392157%);fill-opacity:1;" d="M 169.714844 76.238281 L 169.070312 78.441406 L 169.070312 142.363281 L 169.714844 143.011719 L 199.285156 125.472656 Z M 169.714844 76.238281 "/>
<path style=" stroke:none;fill-rule:nonzero;fill:rgb(54.901963%,54.901963%,54.901963%);fill-opacity:1;" d="M 169.714844 76.242188 L 140.148438 125.472656 L 169.714844 143.011719 Z M 169.714844 76.242188 "/>
<path style=" stroke:none;fill-rule:nonzero;fill:rgb(23.529412%,23.529412%,23.137255%);fill-opacity:1;" d="M 169.714844 148.628906 L 169.351562 149.074219 L 169.351562 171.84375 L 169.714844 172.914062 L 199.300781 131.101562 Z M 169.714844 148.628906 "/>
<path style=" stroke:none;fill-rule:nonzero;fill:rgb(54.901963%,54.901963%,54.901963%);fill-opacity:1;" d="M 169.714844 172.910156 L 169.714844 148.628906 L 140.148438 131.097656 Z M 169.714844 172.910156 "/>
<path style=" stroke:none;fill-rule:nonzero;fill:rgb(7.843138%,7.843138%,7.843138%);fill-opacity:1;" d="M 169.546875 142.679688 L 199.117188 125.140625 L 169.546875 111.652344 Z M 169.546875 142.679688 "/>
<path style=" stroke:none;fill-rule:nonzero;fill:rgb(22.352941%,22.352941%,22.352941%);fill-opacity:1;" d="M 140.148438 125.472656 L 169.714844 143.011719 L 169.714844 111.988281 Z M 140.148438 125.472656 "/>
</g>
</svg>
